public/logo-rk.svg

<svg enable-background="new 0 0 1024 1024" viewBox="0 0 1024 1024" xmlns="http://www.w3.org/2000/svg"><path d="m578.962036 780.954712c-7.361938-9.488281-8.645752-20.372681-9.018738-31.460693-.229614-6.826966-.125183-13.66504-.173706-20.498169-.385986-54.325562-.259704-108.660828-1.296142-162.973999-1.151245-60.330201-.775574-120.653931-.613159-180.97934.069946-25.978241 1.006286-51.963196 2.01007-77.927246.961914-24.88205 14.392578-39.154022 39.23877-42.44928 31.006836-4.112244 62.124267-3.66394 93.250244-1.905365 8.813721.497955 14.017883 5.22702 14.845459 12.718567 1.133545 10.260925-2.943604 17.5466-11.60437 19.904602-9.311524 2.535187-18.820435 4.367767-28.080689 7.064789-20.144897 5.867157-37.306274 16.267731-48.132324 34.867828-6.710693 11.529419-9.151794 24.590546-11.065613 37.632721-5.411987 36.880554-5.038452 74.052185-5.151794 111.180115-.113525 37.16568-.100647 74.334442.272522 111.497711.217285 21.645081.803406 43.307861 2.054199 64.914673 1.059693 18.304932 4.504822 36.221497 11.387695 53.441833 9.369935 23.442627 26.227417 37.511902 50.796265 42.709534 9.116394 1.928528 18.190491 4.06897 27.247192 6.263977 9.093506 2.203797 13.13025 7.576843 12.975831 16.891602-.149964 9.047302-4.705689 14.459411-13.806824 16.316101-1.792053.365661-3.617737.700073-5.438721.770508-27.79602 1.076538-55.616882 2.371032-83.35199-.719056-13.819275-1.539672-26.768921-5.603454-36.344177-17.261413z"/><path d="m410.620728 360.297882c-6.936219-35.69458-31.675873-51.812714-63.890686-59.891907-6.777405-1.699676-13.617646-3.159271-20.362061-4.977417-9.368805-2.525573-12.648865-8.480316-11.68927-20.64389.534241-6.772064 5.688293-11.495148 14.291412-11.985657 27.288422-1.555908 54.575653-2.002319 81.854309.612915 7.977051.764771 15.897187 1.536133 23.550354 3.997742 15.420288 4.959869 26.11496 19.380157 26.977112 35.528198 1.527985 28.620758 1.596741 57.267884 2.215149 85.908905.993164 45.994232.930481 91.985657.293823 137.966767-.526031 37.992492-.232391 75.983276-.717224 113.971618-.365722 28.65625-.71817 57.312866-1.135742 85.968384-.128601 8.825195-.566132 17.646362-.664947 26.471558-.272645 24.343261-14.227967 40.607116-38.517273 43.986877-21.644806 3.011841-43.41153 3.786011-65.254273 2.316712-7.140655-.480347-14.326416-.264283-21.489014-.459717-2.322113-.063416-4.65863-.28833-6.950103-.670044-13.197174-2.198853-18.829651-12.924683-13.407715-25.233277 2.352081-5.339599 6.774536-7.387268 12.092499-8.496887 11.887634-2.480408 23.787719-4.992309 35.376892-8.639648 23.297851-7.332337 36.719665-24.222962 44.385162-46.556214 6.003845-17.492065 8.098297-35.664001 9.023773-53.964721 3.325867-65.768982 2.414032-131.594361 1.916962-197.399933-.206085-27.283539-1.146423-54.605744-4.903229-81.709564-.729706-5.264557-1.937683-10.46283-2.99591-16.1008z"/></svg>

<svg version="1.1" id="Layer_1" xmlns="http://www.w3.org/2000/svg" xmlns:xlink="http://www.w3.org/1999/xlink" x="0px" y="0px"
	 width="100%" viewBox="0 0 1024 1024" enable-background="new 0 0 1024 1024" xml:space="preserve">
<path fill="#000000" opacity="1.000000" stroke="none" 
	d="
M578.962036,780.954712 
	C571.600098,771.466431 570.316284,760.582031 569.943298,749.494019 
	C569.713684,742.667053 569.818115,735.828979 569.769592,728.995850 
	C569.383606,674.670288 569.509888,620.335022 568.473450,566.021851 
	C567.322205,505.691650 567.697876,445.367920 567.860291,385.042511 
	C567.930237,359.064270 568.866577,333.079315 569.870361,307.115265 
	C570.832275,282.233215 584.262939,267.961243 609.109131,264.665985 
	C640.115967,260.553741 671.233398,261.002045 702.359375,262.760620 
	C711.173096,263.258575 716.377258,267.987640 717.204834,275.479187 
	C718.338379,285.740112 714.261230,293.025787 705.600464,295.383789 
	C696.288940,297.918976 686.780029,299.751556 677.519775,302.448578 
	C657.374878,308.315735 640.213501,318.716309 629.387451,337.316406 
	C622.676758,348.845825 620.235657,361.906952 618.321838,374.949127 
	C612.909851,411.829681 613.283386,449.001312 613.170044,486.129242 
	C613.056519,523.294922 613.069397,560.463684 613.442566,597.626953 
	C613.659851,619.272034 614.245972,640.934814 615.496765,662.541626 
	C616.556458,680.846558 620.001587,698.763123 626.884460,715.983459 
	C636.254395,739.426086 653.111877,753.495361 677.680725,758.692993 
	C686.797119,760.621521 695.871216,762.761963 704.927917,764.956970 
	C714.021423,767.160767 718.058167,772.533813 717.903748,781.848572 
	C717.753784,790.895874 713.198059,796.307983 704.096924,798.164673 
	C702.304871,798.530334 700.479187,798.864746 698.658203,798.935181 
	C670.862183,800.011719 643.041321,801.306213 615.306213,798.216125 
	C601.486938,796.676453 588.537292,792.612671 578.962036,780.954712 
z"/>
<path fill="#000000" opacity="1.000000" stroke="none" 
	d="
M410.620728,360.297882 
	C403.684509,324.603302 378.944855,308.485168 346.730042,300.405975 
	C339.952637,298.706299 333.112396,297.246704 326.367981,295.428558 
	C316.999176,292.902985 313.719116,286.948242 314.678711,274.784668 
	C315.212952,268.012604 320.367004,263.289520 328.970123,262.799011 
	C356.258545,261.243103 383.545776,260.796692 410.824432,263.411926 
	C418.801483,264.176697 426.721619,264.948059 434.374786,267.409668 
	C449.795074,272.369537 460.489746,286.789825 461.351898,302.937866 
	C462.879883,331.558624 462.948639,360.205750 463.567047,388.846771 
	C464.560211,434.841003 464.497528,480.832428 463.860870,526.813538 
	C463.334839,564.806030 463.628479,602.796814 463.143646,640.785156 
	C462.777924,669.441406 462.425476,698.098022 462.007904,726.753540 
	C461.879303,735.578735 461.441772,744.399902 461.342957,753.225098 
	C461.070312,777.568359 447.114990,793.832214 422.825684,797.211975 
	C401.180878,800.223816 379.414154,800.997986 357.571411,799.528687 
	C350.430756,799.048340 343.244995,799.264404 336.082397,799.068970 
	C333.760284,799.005554 331.423767,798.780640 329.132294,798.398926 
	C315.935120,796.200073 310.302643,785.474243 315.724579,773.165649 
	C318.076660,767.826050 322.499115,765.778381 327.817078,764.668762 
	C339.704712,762.188354 351.604797,759.676453 363.193970,756.029114 
	C386.491821,748.696777 399.913635,731.806152 407.579132,709.472900 
	C413.582977,691.980835 415.677429,673.808899 416.602905,655.508179 
	C419.928772,589.739197 419.016937,523.913818 418.519867,458.108246 
	C418.313782,430.824707 417.373444,403.502502 413.616638,376.398682 
	C412.886932,371.134125 411.678955,365.935852 410.620728,360.297882 
z"/>
</svg>
